openmetadata-ui/src/main/resources/ui/src/assets/svg/ic-search.svg

<svg width="20" height="20" viewBox="0 0 20 20" fill="none" xmlns="http://www.w3.org/2000/svg">
<path d="M19.4499 16.7994L14.8612 12.2106C14.1768 13.2738 13.2731 14.1781 12.21 14.8619L16.7993 19.4506C17.5318 20.1831 18.7187 20.1831 19.4499 19.4506C20.1831 18.72 20.1831 17.5331 19.4499 16.7994Z" fill="#CCCCCC"/>
<path d="M15 7.5C15 3.35813 11.6419 0 7.5 0C3.35813 0 0 3.35813 0 7.5C0 11.6419 3.35813 15 7.5 15C11.6419 15 15 11.6419 15 7.5ZM7.5 13.125C4.3975 13.125 1.875 10.6025 1.875 7.5C1.875 4.39813 4.3975 1.875 7.5 1.875C10.6019 1.875 13.125 4.39813 13.125 7.5C13.125 10.6025 10.6019 13.125 7.5 13.125Z" fill="#CCCCCC"/>
<path d="M3.125 7.5H4.375C4.375 5.77688 5.77625 4.375 7.5 4.375V3.125C5.0875 3.125 3.125 5.08875 3.125 7.5Z" fill="#CCCCCC"/>
</svg>

<svg xmlns="http://www.w3.org/2000/svg" width="20" height="20" fill="none"><path fill="#CCC" d="m19.45 16.8-4.589-4.59a8.842 8.842 0 0 1-2.651 2.652l4.59 4.589c.732.732 1.919.732 2.65 0a1.873 1.873 0 0 0 0-2.652ZM15 7.5a7.5 7.5 0 1 0-15 0 7.5 7.5 0 0 0 15 0Zm-7.5 5.625A5.63 5.63 0 0 1 1.875 7.5 5.63 5.63 0 0 1 7.5 1.875 5.631 5.631 0 0 1 13.125 7.5 5.63 5.63 0 0 1 7.5 13.125Z"/><path fill="#CCC" d="M3.125 7.5h1.25A3.128 3.128 0 0 1 7.5 4.375v-1.25A4.38 4.38 0 0 0 3.125 7.5Z"/></svg>
